www/assets/icons/dining.svg

<svg xmlns="http://www.w3.org/2000/svg" width="24" height="24" viewBox="0 0 24 24" fill='currentColor'><path d="M20 2H4c-1.1 0-2 .9-2 2v16c0 1.1.9 2 2 2h16c1.1 0 2-.9 2-2V4c0-1.1-.9-2-2-2m-9 8.3c0 .93-.64 1.71-1.5 1.93V19H8v-6.77c-.86-.22-1.5-1-1.5-1.93V6.5c0-.28.22-.5.5-.5s.5.22.5.5V9h.75V6.5c0-.28.22-.5.5-.5s.5.22.5.5V9H10V6.5c0-.28.23-.5.5-.5.28 0 .5.22.5.5zm4.58 2.29-.08.03V19H14v-6.38l-.08-.04c-.97-.47-1.67-1.7-1.67-3.18 0-1.88 1.13-3.4 2.5-3.4 1.38 0 2.5 1.53 2.5 3.41 0 1.48-.7 2.71-1.67 3.18"/></svg>

<svg width="24" height="24" viewBox="0 0 24 24" xmlns="http://www.w3.org/2000/svg" fill='currentColor'><path d="M20 2H4C2.9 2 2 2.9 2 4V20C2 21.1 2.9 22 4 22H20C21.1 22 22 21.1 22 20V4C22 2.9 21.1 2 20 2ZM11 10.3C11 11.23 10.36 12.01 9.5 12.23V19H8V12.23C7.14 12.01 6.5 11.23 6.5 10.3V6.5C6.5 6.22 6.72 6 7 6C7.28 6 7.5 6.22 7.5 6.5V9H8.25V6.5C8.25 6.22 8.47 6 8.75 6C9.03 6 9.25 6.22 9.25 6.5V9H10V6.5C10 6.22 10.23 6 10.5 6C10.78 6 11 6.22 11 6.5V10.3ZM15.58 12.59L15.5 12.62V19H14V12.62L13.92 12.58C12.95 12.11 12.25 10.88 12.25 9.4C12.25 7.52 13.38 6 14.75 6C16.13 6 17.25 7.53 17.25 9.41C17.25 10.89 16.55 12.12 15.58 12.59Z"/></svg>
